/*
 * MABVectorRotate.osl by Michel J. Anders (c)2013
 * from https://github.com/sambler/osl-shaders
 *
 * license: gplv3
 *
 * original script from -
 * Open Shading Language for Blender by Michel J. Anders
 *
 */


shader rotate(
    vector VectorIn = 0,
    vector From = 0,
    vector To = point(0,0,1),
    float Angle = 0, // in degrees

    output vector VectorOut = 0 )
{
    VectorOut = rotate(VectorIn, radians(Angle), From, To);
}
