/*
 * MABVectorScale.osl by Michel J. Anders (c)2013
 * from https://github.com/sambler/osl-shaders
 *
 * license: gplv3
 *
 * original script from -
 * Open Shading Language for Blender by Michel J. Anders
 *
 */


shader MABVectorScale(
    vector VectorIn = 0,
    vector Scale = 1,

    output vector VectorOut = 0 )
{
    VectorOut = VectorIn * Scale;
}
