/*
 * SAInputRGB.osl by Shane Ambler (c)2012
 * from https://github.com/sambler/osl-shaders
 *
 * license: BSD
 *
 * While you can display a colourwheel within the node tree the exact values 
 * used aren't displayed.
 * This script simply allows the input to be visible for easy sharing.
 */


shader SARGBInput(
    float R = 0.0,
    float G = 0.0,
    float B = 0.0,
    output color Color = color(0.0) )
{
    Color = color(R,G,B);
}

