/*
 * MAToon.osl by Michel J. Anders (c)2012
 * from https://github.com/sambler/osl-shaders
 *
 * license: cc-by-sa
 *
 * original script from -
 * http://blenderthings.blogspot.co.uk/2012/11/a-toon-osl-shader-for-blender.html
 *
 */

#include "stdosl.h"

shader MAtoon(
    color Color = 1,
    float Angle = 50,
    output color Col = 0)
{
    float angle = cos(radians(Angle));
    if(abs(dot(-I,N)) > angle) Col = Color;
}

