/*
 * MABMirrorXY.osl by Michel J. Anders (c)2013
 * from https://github.com/sambler/osl-shaders
 *
 * license: gplv3
 *
 * original script from -
 * Open Shading Language for Blender by Michel J. Anders
 *
 */


point mirror_xy(point p){
    return point(p[1],p[0],p[2]);
}

shader MABMirrorXY(
    point VectorIn = P,

    output point VectorOut = P )
{
    VectorOut = mirror_xy(VectorIn);
}
