/*
 * MABRotate180.osl by Michel J. Anders (c)2013
 * from https://github.com/sambler/osl-shaders
 *
 * license: gplv3
 *
 * original script from -
 * Open Shading Language for Blender by Michel J. Anders
 *
 */


point rotate_180(point p){
    return point(1-p[0],1-p[1],p[2]);
}

shader MABRotate180(
    point VectorIn = P,

    output point VectorOut = P )
{
    VectorOut = rotate_180(VectorIn);
}
